dist/img/references/rıver-ısland.svg

<svg width="347" height="40" viewBox="0 0 347 40" fill="none" xmlns="http://www.w3.org/2000/svg">
<g clip-path="url(#clip0_4022_954)">
<path d="M121.861 19.381C124.579 19.381 126.57 19.0001 128.05 18.0826C130.102 16.7842 130.985 14.6721 130.985 11.9713C130.985 9.04557 129.929 7.15854 128.275 6.02458C126.804 4.9945 124.744 4.56169 121.688 4.56169H118.139V39.2901H112.114V0.804932H122.692C126.683 0.804932 129.989 1.23774 132.82 2.98628C137.182 5.79952 137.295 10.2315 137.295 11.2615C137.295 16.0744 134.646 19.7013 129.989 21.268C129.574 21.4325 129.106 21.5364 128.63 21.6489L141.008 39.2815H134.153L120.511 19.3723H121.861V19.381Z" fill="#231F20"/>
<path d="M9.74681 19.381C12.4562 19.381 14.4644 19.0001 15.9359 18.0826C17.9961 16.7842 18.879 14.6721 18.879 11.9713C18.879 9.04557 17.823 7.15854 16.1697 6.02458C14.6981 4.9945 12.638 4.56169 9.57369 4.56169H6.03333V39.2901H0V0.804932H10.5691C14.5769 0.804932 17.8749 1.23774 20.7055 2.98628C25.0595 5.79952 25.1807 10.2315 25.1807 11.2615C25.1807 16.0744 22.5319 19.7013 17.8749 21.268C17.4681 21.4325 16.992 21.5364 16.5159 21.6489L28.8942 39.2815H22.0299L8.38779 19.3723H9.74681V19.381Z" fill="#231F20"/>
<path d="M39.4978 0.804932H33.4385V39.2901H39.4978V0.804932Z" fill="#231F20"/>
<path d="M78.7191 0.804932L64.2374 39.2901H59.3813L44.6572 0.804932H51.2965L62.6793 31.1707L73.8803 0.804932H78.7191Z" fill="#231F20"/>
<path d="M89.4093 35.5074H106.921V39.2901H83.3413V0.804932H105.536V4.56169H89.4093V17.3295H104.904V21.1122H89.4093V35.5074Z" fill="#231F20"/>
<path d="M172.361 0.804932H166.302V39.2901H172.361V0.804932Z" fill="#231F20"/>
<path d="M192.565 0C195.854 0 199.316 0.701147 202.493 2.01688V7.10669C198.918 5.04653 195.17 3.96451 192.106 3.96451C188.262 3.96451 185.441 5.74767 185.441 8.99372C185.441 17.5373 205.09 16.0312 205.09 28.9028C205.09 35.066 200.537 40 191.214 40C187.163 40 183.121 39.0825 179.883 37.4551V31.9325C182.549 34.261 187.397 35.9922 191.656 35.9922C196.14 35.9922 199.671 34.0446 199.671 30.1493C199.671 21.0084 180.004 22.6877 180.004 9.91993C180.004 2.99502 185.778 0 192.565 0Z" fill="#231F20"/>
<path d="M218.083 0.804932V35.5074H234.599L233.153 39.2901H212.015V0.804932H218.083Z" fill="#231F20"/>
<path d="M247.081 25.3364H260.005L253.469 8.40502L247.072 25.3364H247.081ZM272.028 39.2901H265.38L261.459 29.1191H245.644L241.775 39.2901H236.927L251.92 0.804932H256.776L272.028 39.2901Z" fill="#231F20"/>
<path d="M307.302 0.804932V39.2901H303.251L281.195 10.5171V39.2901H276.581V0.804932H281.428L302.679 28.5219V0.804932H307.302Z" fill="#231F20"/>
<path d="M334.274 6.94213C331.902 5.42731 328.795 4.66557 324.103 4.66557H320.303V35.3948H324.103C328.379 35.3948 331.79 34.7456 334.274 33.1183C338.083 30.6859 339.883 26.0808 339.883 19.9696C339.883 13.8584 338.092 9.36585 334.274 6.93348M340.515 34.962C337.096 37.8878 332.084 39.2901 326.068 39.2901H314.227V0.804932H326.068C332.076 0.804932 337.096 2.1726 340.515 5.09837C344.376 8.45696 346.22 13.7026 346.22 20.0302C346.22 26.3578 344.376 31.6121 340.515 34.962Z" fill="#231F20"/>
</g>
<defs>
<clipPath id="clip0_4022_954">
<rect width="346.219" height="40" fill="white"/>
</clipPath>
</defs>
</svg>

<svg width="347" height="40" viewBox="0 0 347 40" fill="none" xmlns="http://www.w3.org/2000/svg"><g clip-path="url(#clip0_4022_954)" fill="#231F20"><path d="M121.861 19.381c2.718 0 4.709-.38 6.189-1.298 2.052-1.299 2.935-3.41 2.935-6.112 0-2.925-1.056-4.812-2.71-5.946-1.471-1.03-3.531-1.463-6.587-1.463h-3.549V39.29h-6.025V.805h10.578c3.991 0 7.297.433 10.128 2.181 4.362 2.814 4.475 7.245 4.475 8.276 0 4.812-2.649 8.44-7.306 10.006-.415.165-.883.268-1.359.38l12.378 17.634h-6.855l-13.642-19.91h1.35v.009zm-112.114 0c2.71 0 4.717-.38 6.189-1.298 2.06-1.299 2.943-3.41 2.943-6.112 0-2.925-1.056-4.812-2.71-5.946-1.47-1.03-3.531-1.463-6.595-1.463h-3.54V39.29H0V.805h10.57c4.007 0 7.305.433 10.136 2.181 4.354 2.814 4.475 7.245 4.475 8.276 0 4.812-2.65 8.44-7.306 10.006-.407.165-.883.268-1.36.38l12.38 17.634H22.03L8.388 19.372h1.359v.009zM39.498.805h-6.06V39.29h6.06V.805zm39.222 0L64.236 39.29H59.38L44.657.805h6.64L62.678 31.17 73.88.805h4.84zm10.69 34.702h17.511v3.783h-23.58V.805h22.195v3.757H89.409V17.33h15.495v3.782H89.409v14.395zM172.361.805h-6.059V39.29h6.059V.805zM192.565 0c3.289 0 6.751.701 9.928 2.017v5.09c-3.575-2.06-7.323-3.142-10.387-3.142-3.844 0-6.665 1.783-6.665 5.029 0 8.543 19.649 7.037 19.649 19.909 0 6.163-4.553 11.097-13.876 11.097-4.051 0-8.093-.917-11.331-2.545v-5.522c2.666 2.328 7.514 4.06 11.773 4.06 4.484 0 8.015-1.948 8.015-5.844 0-9.14-19.667-7.461-19.667-20.23 0-6.924 5.774-9.919 12.561-9.919zm25.518.805v34.702h16.516l-1.446 3.783h-21.138V.805h6.068zm28.998 24.531h12.924l-6.536-16.931-6.397 16.931h.009zm24.947 13.954h-6.648l-3.921-10.17h-15.815l-3.869 10.17h-4.848L251.92.805h4.856l15.252 38.485zM307.302.805V39.29h-4.051l-22.056-28.773V39.29h-4.614V.805h4.847l21.251 27.717V.805h4.623zm26.972 6.137c-2.372-1.515-5.479-2.276-10.171-2.276h-3.8v30.729h3.8c4.276 0 7.687-.65 10.171-2.277 3.809-2.432 5.609-7.037 5.609-13.148 0-6.112-1.791-10.604-5.609-13.037m6.241 28.029c-3.419 2.926-8.431 4.328-14.447 4.328h-11.841V.805h11.841c6.008 0 11.028 1.368 14.447 4.293 3.861 3.359 5.705 8.605 5.705 14.932 0 6.328-1.844 11.582-5.705 14.932z"/></g><defs><clipPath id="clip0_4022_954"><rect width="346.219" height="40" fill="#fff"/></clipPath></defs></svg>
